coffe/python.svg

<svg width="48" height="48" viewBox="0 0 48 48" fill="none" xmlns="http://www.w3.org/2000/svg">
<path fill-rule="evenodd" clip-rule="evenodd" d="M36.5749 12.2393V17.3247C36.5749 21.2665 33.2323 24.5845 29.4213 24.5845H17.9832C14.8502 24.5845 12.2579 27.2662 12.2579 30.4039V41.3088C12.2579 44.4117 14.9559 46.2373 17.9832 47.1273C21.6078 48.1925 25.0839 48.3854 29.4213 47.1273C32.3039 46.2921 35.1466 44.6125 35.1466 41.3088V36.944H23.709V35.4888H40.8729C44.2006 35.4888 45.4416 33.1678 46.5991 29.6833C47.7946 26.0963 47.7431 22.6465 46.5991 18.0453C45.7764 14.7319 44.2057 12.2388 40.8729 12.2388L36.5749 12.2393ZM32.2904 42.0294C32.2904 40.826 31.3291 39.8536 30.1415 39.8536C28.959 39.8536 27.993 40.826 27.993 42.0294C27.993 43.2361 28.959 44.2178 30.1415 44.2178C31.3287 44.2178 32.2904 43.2361 32.2904 42.0294Z" fill="#A07250"/>
<path fill-rule="evenodd" clip-rule="evenodd" d="M23.4553 0.000368772C21.4974 0.00964355 19.6285 0.176163 17.9832 0.467391C13.1371 1.32345 12.2579 3.1153 12.2579 6.42037V10.7847H23.709V12.2394H7.95992C4.63213 12.2394 1.71801 14.2395 0.806304 18.0459C-0.245456 22.4073 -0.29183 25.1295 0.806304 29.6838C1.62016 33.0742 3.56417 35.4894 6.89242 35.4894H10.83V30.2575C10.83 26.4776 14.0998 23.1437 17.9837 23.1437H29.4218C32.6058 23.1437 35.1471 20.5218 35.1471 17.3248V6.42082C35.1471 3.31701 32.5288 0.98584 29.4218 0.467844C27.4537 0.140444 25.4127 -0.00844226 23.4553 0.000368772ZM19.4115 5.69974C19.4115 4.49216 18.4451 3.51045 17.2625 3.51045C16.0753 3.51045 15.1136 4.49216 15.114 5.69974C15.114 6.90221 16.0753 7.87464 17.2625 7.87464C18.4455 7.87464 19.4115 6.90221 19.4115 5.69974Z" fill="#DCA780"/>
</svg>

<svg xmlns="http://www.w3.org/2000/svg" width="48" height="48" fill="none"><path fill="#A07250" fill-rule="evenodd" d="M36.57 12.24v5.08a7.34 7.34 0 0 1-7.15 7.26H17.98a5.84 5.84 0 0 0-5.72 5.82v10.9c0 3.11 2.7 4.94 5.72 5.83a19.17 19.17 0 0 0 11.44 0c2.88-.84 5.73-2.52 5.73-5.82v-4.37H23.7V35.5h17.16c3.33 0 4.57-2.32 5.73-5.8 1.2-3.6 1.14-7.04 0-11.64-.82-3.32-2.4-5.81-5.73-5.81h-4.3ZM32.3 42.03c0-1.2-.96-2.18-2.15-2.18-1.18 0-2.15.98-2.15 2.18 0 1.2.97 2.19 2.15 2.19 1.19 0 2.15-.98 2.15-2.2Z" clip-rule="evenodd"/><path fill="#DCA780" fill-rule="evenodd" d="M23.46 0c-1.96.01-3.83.18-5.48.47-4.84.85-5.72 2.65-5.72 5.95v4.36H23.7v1.46H7.96c-3.33 0-6.24 2-7.15 5.8a21.4 21.4 0 0 0 0 11.64c.81 3.4 2.75 5.8 6.08 5.8h3.94v-5.22a7.28 7.28 0 0 1 7.15-7.12h11.44a5.77 5.77 0 0 0 5.73-5.82V6.42c0-3.1-2.62-5.43-5.73-5.95-1.97-.33-4-.48-5.96-.47ZM19.4 5.7c0-1.2-.96-2.19-2.15-2.19-1.18 0-2.15.98-2.15 2.19 0 1.2.97 2.17 2.15 2.17 1.19 0 2.15-.97 2.15-2.17Z" clip-rule="evenodd"/></svg>
